X:430
M:C
L:1/8
K:C
f|e<g g>a g>ec>a|g>ca>c e<d d>f|e<g g>a g>ag>e|f>dg>f e<cc:|
|:e|G>cE>c d>cd>e|c<c e>d c<A A>c|1 G<cE<c d>cd>e|c<A G>F E<C d>c:|2

